X: 14
T: Green Fields Of Rossbeigh, The
Z: tziguk
S: https://thesession.org/tunes/322#setting53467
R: reel
M: 4/4
L: 1/8
K: Edor
|:BE (3EEE BAFA|ABde fded|BE (3EEE BAFA|BFAF EFGA|
Bddd BAFB|ABde fded|BE (3EEE BAFA|1BFAF EFGA:|2BFAF E3A||
|:Bdef g2fe|dB (3BBB dBAd| B/c/d efg2fe| dBAF E2 ef|
g3a gfeg|f3g fedB|ABde fdec|1dBAG E2:|2dBAG EFGA||

%-------------------- TUNE SEPARATOR --------------------%

